img/image/catalogue-value2.svg

<svg width="23" height="16" viewBox="0 0 23 16" fill="none" xmlns="http://www.w3.org/2000/svg">
<g opacity="0.6">
<path d="M18.7283 4.23044C20.612 6.16009 21.7731 8.79844 21.7731 11.7097H13.9318M8.19346 11.7097H0.353699C0.353699 5.79501 5.14869 1.00001 11.0635 1.00001C13.4072 1.00001 15.5746 1.75324 17.3371 3.02939" stroke="#D9D9D9" stroke-width="0.5" stroke-miterlimit="10" stroke-linecap="round" stroke-linejoin="round"/>
<path d="M11.0635 14.3159C12.4992 14.3159 13.6696 13.1455 13.6696 11.7098C13.6696 10.2741 12.4992 9.10373 11.0635 9.10373C9.6277 9.10373 8.45734 10.2741 8.45734 11.7098C8.45734 13.1455 9.6277 14.3159 11.0635 14.3159Z" stroke="#D9D9D9" stroke-width="0.5" stroke-miterlimit="10" stroke-linecap="round" stroke-linejoin="round"/>
<path d="M13.8459 4.06497L14.1497 3.22739M7.97566 3.22739L8.2809 4.06497M16.291 5.47927L16.8631 4.79661M5.26221 4.79661L5.83589 5.47927M18.1071 7.64198L18.8802 7.19724M3.24663 7.19724L4.01825 7.64198M18.6593 10.3708L20.3665 10.0686M1.75879 10.0686L3.46756 10.3708M11.0634 2.26421V3.99749" stroke="#D9D9D9" stroke-width="0.5" stroke-miterlimit="10" stroke-linecap="round" stroke-linejoin="round"/>
<path d="M13.1096 9.99951L14.3198 6.06813L11.5082 9.09451" stroke="#D9D9D9" stroke-width="0.5" stroke-miterlimit="10" stroke-linecap="round" stroke-linejoin="round"/>
<path d="M5.40949 13.2069H6.41108C6.90349 13.2069 7.30689 13.6104 7.30689 14.1043C7.30689 14.5967 6.90349 15.0001 6.41108 15.0001H2.56866C2.0763 15.0001 1.67285 14.5967 1.67285 14.1043C1.67285 13.6104 2.0763 13.2069 2.56866 13.2069H3.57036" stroke="#D9D9D9" stroke-width="0.5" stroke-miterlimit="10" stroke-linecap="round" stroke-linejoin="round"/>
<path d="M18.5549 15.0001H19.5566C20.0506 15.0001 20.454 14.5967 20.454 14.1043C20.454 13.6104 20.0506 13.2069 19.5566 13.2069H15.7157C15.2218 13.2069 14.8184 13.6104 14.8184 14.1043C14.8184 14.5967 15.2218 15.0001 15.7157 15.0001H16.7173" stroke="#D9D9D9" stroke-width="0.5" stroke-miterlimit="10" stroke-linecap="round" stroke-linejoin="round"/>
</g>
</svg>

<svg width="23" height="16" fill="none" xmlns="http://www.w3.org/2000/svg"><g opacity=".6" stroke="#D9D9D9" stroke-width=".5" stroke-miterlimit="10" stroke-linecap="round" stroke-linejoin="round"><path d="M18.728 4.23a10.672 10.672 0 0 1 3.045 7.48h-7.841m-5.739 0H.353C.354 5.795 5.15 1 11.064 1c2.344 0 4.512.753 6.274 2.03"/><path d="M11.063 14.316a2.61 2.61 0 0 0 2.607-2.606 2.61 2.61 0 0 0-2.607-2.606 2.61 2.61 0 0 0-2.606 2.606 2.61 2.61 0 0 0 2.606 2.606ZM13.846 4.065l.304-.838m-6.174 0 .305.838m8.01 1.414.572-.682m-11.6 0 .573.682m12.271 2.163.773-.445m-15.633 0 .771.445m14.641 2.729 1.707-.302m-18.607 0 1.709.302m7.595-8.107v1.733"/><path d="m13.11 10 1.21-3.932-2.812 3.027M5.41 13.207H6.41a.9.9 0 0 1 .896.897.899.899 0 0 1-.896.896H2.57a.899.899 0 0 1-.896-.896.9.9 0 0 1 .896-.897H3.57M18.555 15h1.002a.9.9 0 0 0 .897-.896.9.9 0 0 0-.897-.897h-3.841a.9.9 0 0 0-.898.897.9.9 0 0 0 .898.896h1.001"/></g></svg>
